next/src/assets/icons/reproduktor.svg

<svg width="24" height="24" viewBox="0 0 24 24" fill="none" xmlns="http://www.w3.org/2000/svg">
<path fill-rule="evenodd" clip-rule="evenodd" d="M12.88 2.83C12.27 2.55 11.57 2.64 11.06 3.08L6.44 7.02H3.45C2.5 7.02 1.72 7.8 1.72 8.75V15.24C1.72 16.19 2.5 16.97 3.45 16.97H6.44L11.06 20.91C11.38 21.18 11.77 21.32 12.16 21.32C12.4 21.32 12.65 21.27 12.88 21.16C13.49 20.88 13.87 20.28 13.87 19.61V4.38C13.87 3.71 13.49 3.11 12.88 2.83ZM12.37 19.62C12.37 19.73 12.31 19.78 12.25 19.81C12.2 19.83 12.11 19.85 12.03 19.78L6.99 15.48H3.45C3.32 15.48 3.22 15.38 3.22 15.25V8.76C3.22 8.63 3.32 8.53 3.45 8.53H6.99L12.03 4.23C12.11 4.16 12.19 4.18 12.25 4.2C12.3 4.23 12.37 4.28 12.37 4.39V19.62ZM16.4328 7.08048C16.2567 6.86879 15.9396 6.86452 15.7412 7.05556L15.3818 7.40163C15.1822 7.59379 15.179 7.9103 15.3516 8.12694C16.1756 9.16093 16.64 10.5451 16.64 12C16.64 13.455 16.1756 14.8391 15.3516 15.8731C15.179 16.0897 15.1822 16.4063 15.3818 16.5984L15.7412 16.9445C15.9396 17.1355 16.2567 17.1313 16.4328 16.9196C17.5255 15.6067 18.14 13.8407 18.14 12C18.14 10.1593 17.5255 8.39339 16.4328 7.08048ZM20.77 12.01C20.77 9.42343 19.898 6.96763 18.3577 5.18002C18.1772 4.97053 18.1817 4.65432 18.3809 4.4625L18.7396 4.11706C18.9386 3.92543 19.2563 3.93074 19.4378 4.13897C21.2394 6.2051 22.27 9.04093 22.27 12.01C22.27 14.9799 21.2477 17.8165 19.4379 19.8828C19.2562 20.0902 18.9392 20.0951 18.7405 19.9038L18.3809 19.5575C18.1817 19.3657 18.1772 19.0495 18.3577 18.84C19.898 17.0524 20.77 14.5966 20.77 12.01Z" fill="currentColor"/>
</svg>

<svg xmlns="http://www.w3.org/2000/svg" width="24" height="24" fill="none" viewBox="0 0 24 24">
  <path fill="currentColor" fill-rule="evenodd" d="M12.88 2.83c-.61-.28-1.31-.19-1.82.25L6.44 7.02H3.45c-.95 0-1.73.78-1.73 1.73v6.49c0 .95.78 1.73 1.73 1.73h2.99l4.62 3.94c.32.27.71.41 1.1.41.24 0 .49-.05.72-.16.61-.28.99-.88.99-1.55V4.38c0-.67-.38-1.27-.99-1.55Zm-.51 16.79c0 .11-.06.16-.12.19-.05.02-.14.04-.22-.03l-5.04-4.3H3.45c-.13 0-.23-.1-.23-.23V8.76c0-.13.1-.23.23-.23h3.54l5.04-4.3c.08-.07.16-.05.22-.03.05.03.12.08.12.19v15.23ZM16.1 6.71l-1.08 1.04c1.03 1.06 1.62 2.61 1.62 4.25 0 1.64-.59 3.19-1.62 4.25l1.08 1.04c1.3-1.34 2.04-3.27 2.04-5.29s-.74-3.95-2.04-5.29Zm4.67 5.3c0-2.77-1-5.39-2.75-7.2l1.08-1.04c2.01 2.09 3.17 5.09 3.17 8.24 0 3.15-1.15 6.15-3.17 8.24l-1.08-1.04c1.75-1.81 2.75-4.43 2.75-7.2Z" clip-rule="evenodd"/>
</svg>
